src/topics/icons/leveldb.svg

<svg height="329" preserveAspectRatio="xMidYMid" viewBox="0 0 256 329" width="256" xmlns="http://www.w3.org/2000/svg"><path d="m128 72.1702128-128 63.1966532v128.535564l128 64.267783 128-64.267783v-128.535564z" fill="#d4eb95"/><path d="m128 51.7446809-128 63.1966531v128.535564l128 64.267783 128-64.267783v-128.535564z" fill="#96dc75"/><path d="m128 0-128 63.1966527v128.5355643l128 64.267783 128-64.267783v-128.5355643z" fill="#317342" opacity=".552841"/><path d="m128 122.795274-128-60.1569761v128.9078021l128 64.4539 128-64.4539v-128.9078021z" fill="#34954c" opacity=".552841"/></svg>

<?xml version="1.0" encoding="UTF-8" standalone="no"?>
<svg width="256px" height="329px" viewBox="0 0 256 329" version="1.1" xmlns="http://www.w3.org/2000/svg" xmlns:xlink="http://www.w3.org/1999/xlink" preserveAspectRatio="xMidYMid">
	<g>
		<path d="M128,72.1702128 L0,135.366866 L0,263.90243 L128,328.170213 L256,263.90243 L256,135.366866 L128,72.1702128 L128,72.1702128 Z" fill="#D4EB95"></path>
		<path d="M128,51.7446809 L0,114.941334 L0,243.476898 L128,307.744681 L256,243.476898 L256,114.941334 L128,51.7446809 L128,51.7446809 Z" fill="#96DC75"></path>
		<path d="M128,0 L0,63.1966527 L0,191.732217 L128,256 L256,191.732217 L256,63.1966527 L128,0 L128,0 Z" opacity="0.552840909" fill="#317342"></path>
		<path d="M128,122.795274 L0,62.6382979 L0,191.5461 L128,256 L256,191.5461 L256,62.6382979 L128,122.795274 L128,122.795274 Z" opacity="0.552840909" fill="#34954C"></path>
	</g>
</svg>
